X:6059
T:Siobh=E1n
R:jig
C:Paul S. Cranford
D:The Lighthouse, Cranford Publications
B:The Lighthouse Collection, ISBN 0-9691181-5-5
N:Contacts ...
N:..... Cranford Publications <http://www.cranfordpub.com>
Q:300
O:England
L:1/8
M:12/8
K:F
f|d2 c A2 F GAG F3|ded cAc d3 c2 f|d2 c A2 F GAG F3|GAG GAc d3 c2:|
f| d2 f g2 a fgf d2 c|def gag f3 d2 c|def gag agf d2 c|GAG GAc d3 c2 f|
d2 f g2 a fgf d2 c| def gag f3 d2 a|gfe (f/g/a)g fdc d2 c|GAG GAc d3 c2|]


